X: 10981
T: COTILLION No. 15. tune 1
C:
%R: reel, march
N: This is version 1, for ABC software that doesn't understand crescendo annotations.
B: Elias Howe "The Musician's Companion" Part 1 1842 p.98 #1
S: http://imslp.org/wiki/The_Musician's_Companion_(Howe,_Elias)
Z: 2015 John Chambers <jc:trillian.mit.edu>
N: Is there a missing "D.C." at the end of the 2nd strain?
N: Final rest of 1st strain moved to start, to fix the rhythm of repeats and D.C.s.
M: 2/4
L: 1/16
K: G
% - - - - - - - - - - - - - - - - - - - - - - - - -
z2 |\
!mf!G2(Bc) d2(^ce) | d2(^ce) .d2.B2 | c2(Bd) c2A2 | d2(^ce) d2B2 |\
!f!G2(Bc) d2(^ce) | d2(^ce) d2f2 | g2^c(c e2A)(c | d6) H|]
|: (3(ded) |\
d2f2 (a2ba) | g2(Bc) (ded^c) | d2f2 (a2ba) | g6 (fg) |\
"cresc."e2^de (g2fe) | (d2^cd) (f2e)=c | (e2d)B (d2c)A | G6 :|
B2 |\
!f!.B2.e2 (g2fe) | f2B3 B({d}cB) | B2e2 g2(fe) | (^df)(^ab) B2B2 |\
e2 g4 (fe) | f2 a4 (gf) | (gb).B.B (^cB)(^dB) | "^D.C."e6 |]
% - - - - - - - - - - Dance description - - - - - - - - - -
%%begintext align
%% First 4 right and left,
%% balance 4 and turn,
%% ladies chain,
%% promenade 4,
%% sides the same.
%%endtext
%- - - - - - - - - - - - - - - - - - - - - - - - -
%%sep 1 1 300


